; generated by PrusaSlicer 2.6.0-alpha6+win64 on 2023-05-29 at 09:22:18 UTC


;
;

;
;
; TODO: check the size of the extruder and the y-bar clearance. Optimize & test supports.

; external perimeters extrusion width = 0.42mm
; perimeters extrusion width = 0.44mm
; infill extrusion width = 0.44mm
; solid infill extrusion width = 0.44mm
; top infill extrusion width = 0.44mm
; support material extrusion width = 0.44mm
; first layer extrusion width = 0.56mm

;TYPE:Custom
M104 S0 ; Stops PS/SS from sending temp waits separately
M140 S0
PRINT_START BED=65 HOTEND=225

G21 ; set units to millimeters
G90 ; use absolute coordinates
M83 ; use relative distances for extrusion
M107
;LAYER_CHANGE
;Z:0.2
;HEIGHT:0.2
;BEFORE_LAYER_CHANGE
;0.2
G92 E0

G1 Z.2 F18000
;AFTER_LAYER_CHANGE
;0.2
G1 E-.5 F3000
M204 S3000
G1 X22.424 Y30.941 F18000
G1 E.5 F1800
M204 S1000
;TYPE:Skirt/Brim
;WIDTH:0.56
G1 X26.615 Y28.147 E.21657
G1 X29.14 Y27.383 E.11342
G1 X99.243 Y27.383 E3.0141
G1 X101.098 Y27.779 E.08155
G1 X102.632 Y28.897 E.08161
G1 X103.576 Y30.543 E.08158
G1 X103.794 Y31.934 E.06054
G1 X103.794 Y70.799 E1.67101
G1 X103.398 Y72.654 E.08155
G1 X102.869 Y73.548 E.04466
G1 X97.518 Y80.607 E.38085
G1 X96.267 Y82.104 E.08388
G1 X88.071 Y89.965 E.48828
G1 X86.454 Y90.958 E.08159
G1 X84.932 Y91.22 E.0664
G1 X35.068 Y91.22 E2.14392
G1 X33.212 Y90.824 E.0816
G1 X31.929 Y89.965 E.06639
G1 X23.733 Y82.104 E.48828
G1 X22.482 Y80.607 E.08388
G1 X17.131 Y73.548 E.38085
G1 X16.325 Y71.83 E.08159
G1 X16.206 Y70.799 E.04462
G1 X16.206 Y41.714 E1.25052
G1 X16.687 Y39.678 E.08995
G1 X19.481 Y34.09 E.26862
G1 X20.333 Y32.907 E.06268
G1 X21.731 Y31.51 E.08497
G1 X22.378 Y30.979 E.03599
M204 S2000
M204 S3000
G1 X22.704 Y31.377 F18000
M204 S1000
G1 F1800
G1 X26.902 Y28.578 E.21694
G1 X29.14 Y27.9 E.10054
G1 X99.243 Y27.9 E3.0141
G1 X100.984 Y28.295 E.07676
G1 X102.384 Y29.403 E.07676
G1 X103.169 Y31.006 E.07674
G1 X103.277 Y31.934 E.04017
G1 X103.277 Y70.799 E1.67101
G1 X102.457 Y73.236 E.11055
G1 X96.489 Y81.068 E.42336
G1 X95.266 Y82.397 E.07765
G1 X87.714 Y89.59 E.44841
G1 X86.181 Y90.505 E.07676
G1 X84.932 Y90.703 E.05437
G1 X35.068 Y90.703 E2.14392
G1 X33.327 Y90.308 E.07676
G1 X32.286 Y89.59 E.05437
G1 X24.107 Y81.747 E.48721
G1 X22.894 Y80.295 E.08135
G1 X17.543 Y73.236 E.38085
G1 X16.723 Y70.799 E.11055
G1 X16.723 Y41.714 E1.25052
G1 X17.149 Y39.91 E.0797
G1 X19.943 Y34.321 E.26866
G1 X20.699 Y33.273 E.05556
G1 X22.096 Y31.876 E.08494
G1 X22.658 Y31.415 E.03125
M204 S2000
M204 S3000
G1 X22.984 Y31.813 F18000
M204 S1000
G1 F1800
G1 X27.189 Y29.008 E.21733
G1 X29.14 Y28.417 E.08765
G1 X99.243 Y28.417 E3.0141
G1 X100.861 Y28.811 E.0716
G1 X102.116 Y29.906 E.07161
G1 X102.76 Y31.934 E.09149
G1 X102.76 Y70.799 E1.67101
G1 X102.045 Y72.923 E.09636
G1 X96.694 Y79.982 E.38085
G1 X95.628 Y81.27 E.07188
G1 X87.357 Y89.216 E.49313
G1 X85.914 Y90.046 E.07157
G1 X84.932 Y90.186 E.04265
G1 X35.068 Y90.186 E2.14392
G1 X33.45 Y89.792 E.0716
G1 X32.643 Y89.216 E.04263
G1 X24.481 Y81.39 E.48618
G1 X23.306 Y79.982 E.07885
G1 X17.955 Y72.923 E.38085
G1 X17.24 Y70.799 E.09636
G1 X17.24 Y41.714 E1.25052
G1 X17.612 Y40.141 E.0695
G1 X20.406 Y34.552 E.26866
G1 X21.065 Y33.638 E.04845
G1 X22.462 Y32.241 E.08494
G1 X22.937 Y31.851 E.02642
M204 S2000
G1 E-.5 F3000
M204 S3000
G1 X99.243 Y70.799 F18000
G1 E.5 F1800
M204 S1000
;TYPE:Support material
G1 X97.878 Y69.434 E.083
G1 X97.908 Y68.509 E.03979
G1 X97.908 Y66.635 E.08057
G1 X97.392 Y66.12 E.03134
G1 X95.108 Y66.12 E.0982
G1 X94.592 Y66.635 E.03134
G1 X94.577 Y69.129 E.10723
G1 X94.533 Y69.744 E.02651
G1 X94.459 Y70.363 E.0268
G1 X94.26 Y71.417 E.04612
G1 X94.062 Y72.188 E.03423
G1 X93.872 Y72.782 E.02681
G1 X93.654 Y73.366 E.0268
G1 X93.409 Y73.939 E.02679
G1 X93.137 Y74.499 E.02677
G1 X92.838 Y75.046 E.0268
G1 X92.514 Y75.578 E.02678
G1 X92.164 Y76.094 E.02681
G1 X91.791 Y76.593 E.02679
G1 X91.394 Y77.073 E.02678
G1 X90.657 Y77.853 E.04614
G1 X90.073 Y78.394 E.03423
G1 X89.593 Y78.791 E.02678
G1 X89.094 Y79.164 E.02679
G1 X88.578 Y79.514 E.02681
G1 X88.046 Y79.838 E.02678
G1 X87.499 Y80.137 E.0268
G1 X86.939 Y80.409 E.02677
G1 X86.366 Y80.654 E.02679
G1 X85.782 Y80.872 E.0268
G1 X85.188 Y81.062 E.02681
G1 X84.147 Y81.319 E.0461
G1 X83.363 Y81.459 E.03424
G1 X82.744 Y81.533 E.0268
G1 X82.129 Y81.577 E.02651
G1 X81.485 Y81.592 E.0277
G1 X79.635 Y81.592 E.07954
G1 X79.12 Y82.108 E.03134
G1 X79.12 Y84.392 E.0982
G1 X79.635 Y84.908 E.03134
G1 X81.925 Y84.902 E.09846
G1 X83.092 Y84.829 E.05027
G1 X84.932 Y86.669 E.11188
G1 X35.068 Y86.669 E2.14392
G1 X36.908 Y84.829 E.11188
G1 X38.075 Y84.902 E.05027
G1 X40.365 Y84.908 E.09846
G1 X40.88 Y84.392 E.03134
G1 X40.88 Y82.108 E.0982
G1 X40.365 Y81.592 E.03134
G1 X38.515 Y81.592 E.07954
G1 X37.871 Y81.577 E.0277
G1 X37.256 Y81.533 E.02651
G1 X36.637 Y81.459 E.0268
G1 X36.022 Y81.355 E.02682
G1 X35.413 Y81.223 E.02679
G1 X34.812 Y81.062 E.02675
G1 X34.218 Y80.872 E.02681
G1 X33.634 Y80.654 E.0268
G1 X33.061 Y80.409 E.02679
G1 X32.501 Y80.137 E.02677
G1 X31.57 Y79.604 E.04612
G1 X30.906 Y79.164 E.03425
G1 X30.407 Y78.791 E.02679
G1 X29.927 Y78.394 E.02678
G1 X29.465 Y77.975 E.02682
G1 X28.722 Y77.202 E.0461
G1 X28.209 Y76.593 E.03424
G1 X27.836 Y76.094 E.02679
G1 X27.486 Y75.578 E.02681
G1 X27.162 Y75.046 E.02678
G1 X26.863 Y74.499 E.0268
G1 X26.591 Y73.939 E.02677
G1 X26.346 Y73.366 E.02679
G1 X26.128 Y72.782 E.0268
G1 X25.822 Y71.754 E.04612
G1 X25.645 Y70.978 E.03422
G1 X25.541 Y70.363 E.02682
G1 X25.467 Y69.744 E.0268
G1 X25.423 Y69.129 E.02651
G1 X25.408 Y66.635 E.10723
G1 X24.892 Y66.12 E.03134
G1 X22.608 Y66.12 E.0982
G1 X22.092 Y66.635 E.03134
G1 X22.092 Y68.509 E.08057
G1 X22.122 Y69.434 E.03979
G1 X20.758 Y70.799 E.08297
G1 X20.758 Y41.714 E1.25052
G1 X22.155 Y41.714 E.06006
G1 X22.155 Y38.92 E.12013
G1 X23.552 Y38.92 E.06006
G1 X23.552 Y36.125 E.12017
G1 X24.949 Y36.125 E.06006
G1 X24.949 Y34.728 E.06006
G1 X27.743 Y34.728 E.12013
G1 X27.743 Y33.331 E.06006
G1 X29.14 Y33.331 E.06006
G1 X29.14 Y31.934 E.06006
G1 X99.243 Y31.934 E3.0141
G1 X99.243 Y70.721 E1.66766
M204 S2000
G1 E-.5 F3000
M204 S3000
G1 X37.771 Y41.962 F18000
G1 E.5 F1800
M204 S1000
G1 X55.684 Y41.962 E.77018
G1 X55.684 Y43.359 E.06006
G1 X58.479 Y43.359 E.12017
G1 X58.479 Y44.756 E.06006
G1 X59.876 Y44.756 E.06006
G1 X59.876 Y46.153 E.06006
G1 X61.273 Y46.153 E.06006
G1 X61.273 Y48.948 E.12017
G1 X62.67 Y48.948 E.06006
G1 X62.67 Y53.139 E.18019
G1 X64.067 Y53.139 E.06006
G1 X64.067 Y64.067 E.46985
G1 X62.67 Y64.067 E.06006
G1 X62.67 Y69.655 E.24026
G1 X61.273 Y69.655 E.06006
G1 X61.273 Y72.449 E.12013
G1 X59.876 Y72.449 E.06006
G1 X59.876 Y73.847 E.06011
G1 X57.082 Y73.847 E.12013
G1 X57.082 Y75.244 E.06006
G1 X54.287 Y75.244 E.12017
G1 X54.287 Y76.641 E.06006
G1 X39.168 Y76.641 E.65005
G1 X39.168 Y75.244 E.06006
G1 X36.374 Y75.244 E.12013
G1 X36.374 Y73.847 E.06006
G1 X34.977 Y73.847 E.06006
G1 X34.977 Y72.449 E.06011
G1 X33.58 Y72.449 E.06006
G1 X33.58 Y71.052 E.06006
G1 X32.183 Y71.052 E.06006
G1 X32.183 Y68.258 E.12013
G1 X30.786 Y68.258 E.06006
G1 X30.786 Y48.948 E.83024
G1 X32.183 Y48.948 E.06006
G1 X32.183 Y47.551 E.06006
G1 X33.58 Y47.551 E.06006
G1 X33.58 Y44.756 E.12017
G1 X36.374 Y44.756 E.12013
G1 X36.374 Y43.359 E.06006
G1 X37.771 Y43.359 E.06006
G1 X37.771 Y42.04 E.05671
M204 S2000
G1 E-.5 F3000
M204 S3000
G1 X98.494 Y69.721 F18000
G1 E.5 F1800
M204 S1000
G1 X98.494 Y32.4 E1.60463
G1 X97.919 Y32.4 E.02472
G1 X97.919 Y65.989 E1.44417
G1 X97.585 Y65.655 E.02031
G1 X97.345 Y65.655 E.01032
G1 X97.345 Y32.4 E1.42981
G1 X96.77 Y32.4 E.02472
G1 X96.77 Y65.655 E1.42981
G1 X96.196 Y65.655 E.02468
G1 X96.196 Y32.4 E1.42981
G1 X95.621 Y32.4 E.02472
G1 X95.621 Y65.655 E1.42981
G1 X95.046 Y65.655 E.02472
G1 X95.046 Y32.4 E1.42981
G1 X94.472 Y32.4 E.02468
G1 X94.472 Y66.098 E1.44886
G1 X94.127 Y66.443 E.02098
G1 X94.112 Y69.111 E.11471
G1 X94.069 Y69.7 E.02539
G1 X93.998 Y70.297 E.02585
G1 X93.897 Y70.894 E.02603
G1 X93.897 Y32.4 E1.65506
G1 X93.323 Y32.4 E.02468
G1 X93.323 Y72.923 E1.7423
G1 X92.985 Y73.745 E.03821
G1 X92.748 Y74.234 E.02336
G1 X92.748 Y32.4 E1.79867
G1 X92.174 Y32.4 E.02468
G1 X92.174 Y75.242 E1.84201
G1 X91.599 Y76.073 E.04345
G1 X91.599 Y32.4 E1.87774
G1 X91.025 Y32.4 E.02468
G1 X91.025 Y76.788 E1.90848
G1 X90.45 Y77.401 E.03614
G1 X90.45 Y32.4 E1.93483
G1 X89.876 Y32.4 E.02468
G1 X89.876 Y77.945 E1.95822
G1 X89.301 Y78.428 E.03229
G1 X89.301 Y32.4 E1.97899
G1 X88.727 Y32.4 E.02468
G1 X88.727 Y78.851 E1.99718
G1 X88.152 Y79.228 E.02956
G1 X88.152 Y32.4 E2.01339
G1 X87.578 Y32.4 E.02468
G1 X87.578 Y79.564 E2.02783
G1 X87.003 Y79.86 E.02781
G1 X87.003 Y32.4 E2.04056
G1 X86.428 Y32.4 E.02472
G1 X86.428 Y80.121 E2.05178
G1 X85.854 Y80.348 E.02654
G1 X85.854 Y32.4 E2.06154
G1 X85.279 Y32.4 E.02472
G1 X85.279 Y80.544 E2.06997
G1 X84.705 Y80.71 E.02569
G1 X84.705 Y32.4 E2.07711
G1 X84.13 Y32.4 E.02472
G1 X84.13 Y80.846 E2.08295
G1 X83.556 Y80.954 E.02511
G1 X83.556 Y32.4 E2.0876
G1 X82.981 Y32.4 E.02472
G1 X82.981 Y81.036 E2.09112
G1 X82.407 Y81.09 E.02479
G1 X82.407 Y32.4 E2.09344
G1 X81.832 Y32.4 E.02472
G1 X81.832 Y81.115 E2.09452
G1 X81.258 Y81.127 E.02468
G1 X81.258 Y32.4 E2.09503
G1 X80.683 Y32.4 E.02472
G1 X80.683 Y81.127 E2.09503
G1 X80.109 Y81.127 E.02468
G1 X80.109 Y32.4 E2.09503
G1 X79.534 Y32.4 E.02472
G1 X79.534 Y81.127 E2.09503
G1 X79.443 Y81.127 E.00391
G1 X78.96 Y81.61 E.02937
G1 X78.96 Y32.4 E2.1158
G1 X78.385 Y32.4 E.02472
G1 X78.385 Y86.203 E2.31328
G1 X78.96 Y86.203 E.02472
G1 X78.96 Y84.89 E.05645
G1 X79.443 Y85.373 E.02937
G1 X79.534 Y85.373 E.00391
G1 X79.534 Y86.203 E.03569
G1 X80.109 Y86.203 E.02472
G1 X80.109 Y85.373 E.03569
G1 X80.683 Y85.373 E.02468
G1 X80.683 Y86.203 E.03569
G1 X81.258 Y86.203 E.02472
G1 X81.258 Y85.373 E.03569
G1 X81.832 Y85.369 E.02468
G1 X81.832 Y86.203 E.03586
G1 X82.407 Y86.203 E.02472
G1 X82.407 Y85.347 E.0368
G1 X82.916 Y85.311 E.02194
G1 X82.981 Y85.376 E.00395
G1 X82.981 Y86.203 E.03556
G1 X83.556 Y86.203 E.02472
G1 X83.556 Y85.622 E.02498
M204 S2000
M204 S3000
G1 X77.81 Y86.436 F18000
M204 S1000
G1 F1800
G1 X77.81 Y32.4 E2.3233
G1 X77.236 Y32.4 E.02468
G1 X77.236 Y86.203 E2.31328
G1 X76.661 Y86.203 E.02472
G1 X76.661 Y32.4 E2.31328
G1 X76.087 Y32.4 E.02468
G1 X76.087 Y86.203 E2.31328
G1 X75.512 Y86.203 E.02472
G1 X75.512 Y32.4 E2.31328
G1 X74.938 Y32.4 E.02468
G1 X74.938 Y86.203 E2.31328
G1 X74.363 Y86.203 E.02472
G1 X74.363 Y32.4 E2.31328
G1 X73.789 Y32.4 E.02468
G1 X73.789 Y86.203 E2.31328
G1 X73.214 Y86.203 E.02472
G1 X73.214 Y32.4 E2.31328
G1 X72.64 Y32.4 E.02468
G1 X72.64 Y86.203 E2.31328
G1 X72.065 Y86.203 E.02472
G1 X72.065 Y32.4 E2.31328
G1 X71.491 Y32.4 E.02468
G1 X71.491 Y86.203 E2.31328
G1 X70.916 Y86.203 E.02472
G1 X70.916 Y32.4 E2.31328
G1 X70.342 Y32.4 E.02468
G1 X70.342 Y86.203 E2.31328
G1 X69.767 Y86.203 E.02472
G1 X69.767 Y32.4 E2.31328
G1 X69.193 Y32.4 E.02468
G1 X69.193 Y86.203 E2.31328
G1 X68.618 Y86.203 E.02472
G1 X68.618 Y32.4 E2.31328
G1 X68.043 Y32.4 E.02472
G1 X68.043 Y86.203 E2.31328
G1 X67.469 Y86.203 E.02468
G1 X67.469 Y32.4 E2.31328
G1 X66.894 Y32.4 E.02472
G1 X66.894 Y86.203 E2.31328
G1 X66.32 Y86.203 E.02468
G1 X66.32 Y32.4 E2.31328
G1 X65.745 Y32.4 E.02472
G1 X65.745 Y86.203 E2.31328
G1 X65.171 Y86.203 E.02468
G1 X65.171 Y32.4 E2.31328
G1 X64.596 Y32.4 E.02472
G1 X64.596 Y86.203 E2.31328
G1 X64.022 Y86.203 E.02468
G1 X64.022 Y64.532 E.93175
G1 X63.447 Y64.532 E.02472
G1 X63.447 Y86.203 E.93175
G1 X62.873 Y86.203 E.02468
G1 X62.873 Y70.121 E.69145
G1 X62.298 Y70.121 E.02472
G1 X62.298 Y86.203 E.69145
G1 X61.724 Y86.203 E.02468
G1 X61.724 Y72.915 E.57132
G1 X61.149 Y72.915 E.02472
G1 X61.149 Y86.203 E.57132
G1 X60.575 Y86.203 E.02468
G1 X60.575 Y72.915 E.57132
G1 X60.341 Y72.915 E.01006
G1 X60.341 Y74.312 E.06006
G1 X60 Y74.312 E.01466
G1 X60 Y86.203 E.51126
G1 X59.425 Y86.203 E.02472
G1 X59.425 Y74.312 E.51126
G1 X58.851 Y74.312 E.02468
G1 X58.851 Y86.203 E.51126
G1 X58.276 Y86.203 E.02472
G1 X58.276 Y74.312 E.51126
G1 X57.702 Y74.312 E.02468
G1 X57.702 Y86.203 E.51126
G1 X57.127 Y86.203 E.02472
G1 X57.127 Y75.709 E.45119
G1 X56.553 Y75.709 E.02468
G1 X56.553 Y86.203 E.45119
G1 X55.978 Y86.203 E.02472
G1 X55.978 Y75.709 E.45119
G1 X55.404 Y75.709 E.02468
G1 X55.404 Y86.203 E.45119
G1 X54.829 Y86.203 E.02472
G1 X54.829 Y75.709 E.45119
G1 X54.753 Y75.709 E.00327
G1 X54.753 Y77.106 E.06006
G1 X54.255 Y77.106 E.02141
G1 X54.255 Y86.203 E.39113
G1 X53.68 Y86.203 E.02472
G1 X53.68 Y77.106 E.39113
G1 X53.106 Y77.106 E.02468
G1 X53.106 Y86.203 E.39113
G1 X52.531 Y86.203 E.02472
G1 X52.531 Y77.106 E.39113
G1 X51.957 Y77.106 E.02468
G1 X51.957 Y86.203 E.39113
G1 X51.382 Y86.203 E.02472
G1 X51.382 Y77.106 E.39113
G1 X50.807 Y77.106 E.02472
G1 X50.807 Y86.203 E.39113
G1 X50.233 Y86.203 E.02468
G1 X50.233 Y77.106 E.39113
G1 X49.658 Y77.106 E.02472
G1 X49.658 Y86.203 E.39113
G1 X49.084 Y86.203 E.02468
G1 X49.084 Y77.106 E.39113
G1 X48.509 Y77.106 E.02472
G1 X48.509 Y86.203 E.39113
G1 X47.935 Y86.203 E.02468
G1 X47.935 Y77.106 E.39113
G1 X47.36 Y77.106 E.02472
G1 X47.36 Y86.203 E.39113
G1 X46.786 Y86.203 E.02468
G1 X46.786 Y77.106 E.39113
G1 X46.211 Y77.106 E.02472
G1 X46.211 Y86.203 E.39113
G1 X45.637 Y86.203 E.02468
G1 X45.637 Y77.106 E.39113
G1 X45.062 Y77.106 E.02472
G1 X45.062 Y86.203 E.39113
G1 X44.488 Y86.203 E.02468
G1 X44.488 Y77.106 E.39113
G1 X43.913 Y77.106 E.02472
G1 X43.913 Y86.203 E.39113
G1 X43.339 Y86.203 E.02468
G1 X43.339 Y77.106 E.39113
G1 X42.764 Y77.106 E.02472
G1 X42.764 Y86.203 E.39113
G1 X42.19 Y86.203 E.02468
G1 X42.19 Y77.106 E.39113
G1 X41.615 Y77.106 E.02472
G1 X41.615 Y86.203 E.39113
G1 X41.04 Y86.203 E.02472
G1 X41.04 Y84.89 E.05645
G1 X40.557 Y85.373 E.02937
G1 X40.466 Y85.373 E.00391
G1 X40.466 Y86.203 E.03569
G1 X39.891 Y86.203 E.02472
G1 X39.891 Y85.373 E.03569
G1 X39.317 Y85.373 E.02468
G1 X39.317 Y86.203 E.03569
G1 X38.742 Y86.203 E.02472
G1 X38.742 Y85.373 E.03569
G1 X38.168 Y85.369 E.02468
G1 X38.168 Y86.203 E.03586
G1 X37.593 Y86.203 E.02472
G1 X37.593 Y85.347 E.0368
G1 X37.084 Y85.311 E.02194
G1 X37.019 Y85.376 E.00395
G1 X37.019 Y86.203 E.03556
G1 X36.444 Y86.203 E.02472
G1 X36.444 Y85.622 E.02498
M204 S2000
G1 E-.5 F3000
M204 S3000
G1 X64.022 Y52.906 F18000
G1 E.5 F1800
M204 S1000
G1 X64.022 Y32.4 E.88166
G1 X63.447 Y32.4 E.02472
G1 X63.447 Y52.674 E.87169
G1 X63.135 Y52.674 E.01341
G1 X63.135 Y48.482 E.18024
G1 X62.873 Y48.482 E.01126
G1 X62.873 Y32.4 E.69145
G1 X62.298 Y32.4 E.02472
G1 X62.298 Y48.482 E.69145
G1 X61.738 Y48.482 E.02408
G1 X61.724 Y32.4 E.69145
G1 X61.149 Y32.4 E.02472
G1 X61.149 Y45.688 E.57132
G1 X60.575 Y45.688 E.02468
G1 X60.575 Y32.4 E.57132
G1 X60 Y32.4 E.02472
G1 X60 Y44.291 E.51126
G1 X59.425 Y44.291 E.02472
G1 X59.425 Y32.4 E.51126
G1 X58.851 Y32.4 E.02468
G1 X58.851 Y42.894 E.45119
G1 X58.276 Y42.894 E.02472
G1 X58.276 Y32.4 E.45119
G1 X57.702 Y32.4 E.02468
G1 X57.702 Y42.894 E.45119
G1 X57.127 Y42.894 E.02472
G1 X57.127 Y32.4 E.45119
G1 X56.553 Y32.4 E.02468
G1 X56.553 Y42.894 E.45119
G1 X56.15 Y42.894 E.01733
G1 X56.15 Y41.497 E.06006
G1 X55.978 Y41.497 E.0074
G1 X55.978 Y32.4 E.39113
G1 X55.404 Y32.4 E.02468
G1 X55.404 Y41.497 E.39113
G1 X54.829 Y41.497 E.02472
G1 X54.829 Y32.4 E.39113
G1 X54.255 Y32.4 E.02468
G1 X54.255 Y41.497 E.39113
G1 X53.68 Y41.497 E.02472
G1 X53.68 Y32.4 E.39113
G1 X53.106 Y32.4 E.02468
G1 X53.106 Y41.497 E.39113
G1 X52.531 Y41.497 E.02472
G1 X52.531 Y32.4 E.39113
G1 X51.957 Y32.4 E.02468
G1 X51.957 Y41.497 E.39113
G1 X51.382 Y41.497 E.02472
G1 X51.382 Y32.4 E.39113
G1 X50.807 Y32.4 E.02472
G1 X50.807 Y41.497 E.39113
G1 X50.233 Y41.497 E.02468
G1 X50.233 Y32.4 E.39113
G1 X49.658 Y32.4 E.02472
G1 X49.658 Y41.497 E.39113
G1 X49.084 Y41.497 E.02468
G1 X49.084 Y32.4 E.39113
G1 X48.509 Y32.4 E.02472
G1 X48.509 Y41.497 E.39113
G1 X47.935 Y41.497 E.02468
G1 X47.935 Y32.4 E.39113
G1 X47.36 Y32.4 E.02472
G1 X47.36 Y41.497 E.39113
G1 X46.786 Y41.497 E.02468
G1 X46.786 Y32.4 E.39113
G1 X46.211 Y32.4 E.02472
G1 X46.211 Y41.497 E.39113
G1 X45.637 Y41.497 E.02468
G1 X45.637 Y32.4 E.39113
G1 X45.062 Y32.4 E.02472
G1 X45.062 Y41.497 E.39113
G1 X44.488 Y41.497 E.02468
G1 X44.488 Y32.4 E.39113
G1 X43.913 Y32.4 E.02472
